X: 34908
T: Rock And The Wee Pickle Tow, The
R: waltz
M: 3/4
K: Gmajor
D2|EG3 A2|B4 d2|ef g2 (AB)|A4 b/a/g/f/|
g4 GA|B2 BA (3Bcd|~B2 AG GA|G4:|
gf|e2 e2 gf|e2 e2 gf|ed ef g>f|e2 ed B2|
d3e d2|d3e f2|g2 fe dc|B2 AB G2|
c2 B2 c2|d3e f2|gf ed c (A|B) A3 b/a/g/f/|
g4 GA|B2 BA (3Bcd|~B2 AG GA|G4:|

